src/pos-icons/duck.svg

<svg height="24" viewBox="0 0 24 24" width="24" xmlns="http://www.w3.org/2000/svg"><path d="m8.5 5a1.5 1.5 0 0 0 -1.5 1.5 1.5 1.5 0 0 0 1.5 1.5 1.5 1.5 0 0 0 1.5-1.5 1.5 1.5 0 0 0 -1.5-1.5m1.5-3a5 5 0 0 1 5 5c0 1.7-.85 3.2-2.14 4.1 1.58.15 3.36.51 5.14 1.4 3 1.5 4-.5 4-.5s-1 9-7 9h-6s-5 0-5-5c0-3 3-4 2-6-4 0-4-3.5-4-3.5 1 .5 2.24.5 3 .15.19-2.6 2.36-4.65 5-4.65z"/></svg>

<?xml version="1.0" encoding="UTF-8"?><!DOCTYPE svg PUBLIC "-//W3C//DTD SVG 1.1//EN" "http://www.w3.org/Graphics/SVG/1.1/DTD/svg11.dtd"><svg xmlns="http://www.w3.org/2000/svg" xmlns:xlink="http://www.w3.org/1999/xlink" version="1.1" id="mdi-duck" width="24" height="24" viewBox="0 0 24 24"><path d="M8.5,5A1.5,1.5 0 0,0 7,6.5A1.5,1.5 0 0,0 8.5,8A1.5,1.5 0 0,0 10,6.5A1.5,1.5 0 0,0 8.5,5M10,2A5,5 0 0,1 15,7C15,8.7 14.15,10.2 12.86,11.1C14.44,11.25 16.22,11.61 18,12.5C21,14 22,12 22,12C22,12 21,21 15,21H9C9,21 4,21 4,16C4,13 7,12 6,10C2,10 2,6.5 2,6.5C3,7 4.24,7 5,6.65C5.19,4.05 7.36,2 10,2Z" /></svg>
